X:1
T:182 - Despedida do Culto
T:Letra: Manuel Antônio de Menezes (1848-1941)
T:Música: Karl Wilhelm (1815-1873)
L:1/8
Q:1/4=107
M:4/4
K:Bb
V:1
F2 | "Bb"B,3 D "F"F2 F2 | "Bb"D3 G "Gm"B2 B2 | "Cm"c2 d2 e2 c2 | "Bb/F"B3 A "F"A2 F2 | "Bb"d3 d "F/C"c3/2c/ "Bdim"=B3/2B/ | "F"c6 A2 | "Gm"G3/2G/ A3/2B/ "F"A2 "C7"G2 | "F"F6 || F2 | "F7"c3 B A2 A2 | "Bb"B3 F F2 F2 | "F"e3 d c2 c2 | "Bb"d3 c B4 | F4 F2 "(D)"^F2 | ("Eb"G3 A "Bb"B2) B2 | "Gm"B4 "Cm"c4 | "D"d8 | "Gm"B4 "(Bb7)"B2 "Eb"B2 | ("Bb"B3 d f2) "Eb"e2 | "Bb/F"d4 "F7"c4 | "Bb"B6 |]
w: 1.~Des-pe-de-nos, ó bom Je-sus, No fim do teu ser-vi-çoa-qui; Gui-ar-nos ve-nhaa tu-a luz, Pra que sir-va-mos só a Ti.     De-pe-de-nos, ó Sal-va-dor!    Des-pe-de-nos em teu a-mor;    Per-mi-te que__ nós ou-tra vez     Nos a-jun-te__mos, ó Se-nhor.
w: 2.~Pro-te-ge-nos, ó bom Je-sus, E não nos lar-guea tu-a mão! O teu a-mor só nos in-duz A Te lou-var de co-ra-ção.
w: 3.~Pai nos-so, Tu, quees-tás nos céus, A-qui a-ben-ço-ar-nos vem; Ó Tu, Es-pí-ri-to de Deus, Dá-nos ins-pi-ra-ção tam-bém.
W: 
W:
W: 1. Despede-nos, ó bom Jesus,
W: No fim do teu serviço aqui;
W: Guiar-nos venha a tua luz,
W: Pra que sirvamos só a Ti.
W: 
W:    (Estribilho)
W:    Depede-nos, ó Salvador!
W:    Despede-nos em teu amor;
W:    Permite que nós outra vez 
W:    Nos ajuntemos, ó Senhor.
W: 
W:
W:
W: 2. Protege-nos, ó bom Jesus,
W: E não nos largue a tua mão!
W: O teu amor só nos induz
W: A Te louvar de coração.
W: 
W: 3. Pai nosso, Tu, que estás nos céus,
W: Aqui abençoar-nos vem;
W: Ó Tu, Espírito de Deus,
W: Dá-nos inspiração também.
W: 
W: 





